src/lib/packages/icons/src/assets/filled/sim-card.svg

<svg width="24" height="24" viewBox="0 0 24 24" fill="none" xmlns="http://www.w3.org/2000/svg">
<path d="M18.561 7.56104L14.4399 3.43994C14.1589 3.15894 13.7769 3.00098 13.3789 3.00098H8C6 3.00098 5 4.00098 5 6.00098V18.001C5 20.001 6 21.001 8 21.001H16C18 21.001 19 20.001 19 18.001V8.62207C19 8.22307 18.842 7.84204 18.561 7.56104ZM11.25 17.7C11.25 17.87 11.12 18 10.95 18H9.5C8.5 18 8 17.5 8 16.5V11.5C8 10.5 8.5 10 9.5 10H10.95C11.12 10 11.25 10.13 11.25 10.3V17.7ZM16 16.5C16 17.5 15.5 18 14.5 18C14.5 18 13.225 18 13.05 18C12.875 18 12.75 17.861 12.75 17.7C12.75 17.539 12.75 15.2 12.75 15.05C12.75 14.9 12.869 14.75 13.05 14.75C13.194 14.75 14.978 14.75 15.7 14.75C15.885 14.75 16 14.91 16 15.05C16 15.19 16 16.5 16 16.5ZM16 12.95C16 13.09 15.885 13.25 15.7 13.25C14.978 13.25 13.194 13.25 13.05 13.25C12.869 13.25 12.75 13.1 12.75 12.95C12.75 12.8 12.75 10.461 12.75 10.3C12.75 10.139 12.875 10 13.05 10C13.225 10 14.5 10 14.5 10C15.5 10 16 10.5 16 11.5C16 11.5 16 12.81 16 12.95Z" fill="currentColor"/>
</svg>

<svg xmlns="http://www.w3.org/2000/svg" width="24" height="24" fill="none"><path fill="currentColor" d="M18.561 7.561 14.44 3.44A1.5 1.5 0 0 0 13.379 3H8C6 3 5 4 5 6v12c0 2 1 3 3 3h8c2 0 3-1 3-3V8.622a1.5 1.5 0 0 0-.439-1.061ZM11.25 17.7c0 .17-.13.3-.3.3H9.5c-1 0-1.5-.5-1.5-1.5v-5c0-1 .5-1.5 1.5-1.5h1.45c.17 0 .3.13.3.3v7.4ZM16 16.5c0 1-.5 1.5-1.5 1.5h-1.45a.297.297 0 0 1-.3-.3v-2.65a.3.3 0 0 1 .3-.3h2.65c.185 0 .3.16.3.3v1.45Zm0-3.55c0 .14-.115.3-.3.3h-2.65a.3.3 0 0 1-.3-.3V10.3c0-.161.125-.3.3-.3h1.45c1 0 1.5.5 1.5 1.5v1.45Z"/></svg>
